X: 19
T:SCOTTISH A DEDE
M:4/4
L:1/8
Q:1/4=80
C:Andr MAILLET
K:C
|Acec B/2c/2B/2A/2B2|B/2c/2d/2c/2B/2A/2G/2A/2 B/2E/2B/2E/2BA|Acec B/2c/2
B/2A/2B2|B/2c/2d/2c/2B/2A/2G/2A/2 B/2c/2B/2G/2A2:|!
|:Gced B/2c/2B/2A/2G2|B/2c/2d/2e/2d/2c/2B/2c/2 d/2e/2f/2d/2ec|Gced B/2c/
2B/2A/2G2|B/2c/2d/2e/2d/2c/2B/2c/2 d/2e/2d/2B/2c2:|
